X:170
T:Swingin 7's
C:
N:TablEdited by Michael Abraham
L:1/8
Q:1/4=220
M:4/4
K:C
d^d | "Cmaj7"A1eG4z _B=B | "Cdim"c^d4z {_b}=b2 | "B7"a^f4z {^g}a2 | " ""Em"ge4z EF | 
"F#m"^F=F ^F2 e2 ef | "F#/Bb"^f=f ^f=f ed BA | "Bm7"Bd BA ^F=F ED | B,6 d^d | 
""A2""eG4z _B=B | "Cdim"c^d4z {_b}=b2 | "B7"a^f4z {^g}a2 | "Em"ge4z EF | "F#m"^F=F ^F2 e2 ef | 
"F#/Bb"^f2 f=f ed BA | "Bm"Bd BA ^F=F ED | B,D EF ^FA (3BcB | "Am"""B1""Ac d^d ed =dc | 
"Am/G#"^Gc d^d ed =dc | "Am/G"Gc d^d ed =dc | "Am/F#"^F6 E=F | "F#m"^F=F ^F2 e2 ef | 
"F#/Bb"^f=f ^f=f ed BA | "Bm"Bd BA ^F=F ED | B,D EF ^FA (3BcB | "Am"""B2""A2 cd ed c^G | 
"Am/G#"z2 cd ed cG | "Am/G"z2 cd ed c^F | "Am/F#"z6 EF | "F#m"^F=F ^F2 e2 ef | 
"F#/Bb"^f2 f=f ed BA | "Bm7"Bd BA ^F=F ED | B,4 B,2 C2 | "C#m7"""C1""zE ^FG ^G^c e^f | 
g^g e^c ^G=G ^FE | "Cmaj7"zE GB ce gb | ge gb ge (3BcB | "Cdim"A^F ^DF Ac ^dA | 
"B7"c^d e^f (3faf ed | "Em"e2 {d}e2 e2 A_B | B_B AG E2 EF | "F#m"^F4 F=F ^FA | 
Bc ^c=c BA ^FA | "F#/Bb"_BB AB ^cc Bc | ee ^ce ^ff ed | "Bm7"ed B2 B2 e^f | ed B2 B2 AB | 
"G#7"c^g2^c _b2 [=b2d2] | [c'8^d8] | "C#m7"""C2""b^c eb ec bc | b^c eb ec bc | 
"Cmaj7"bc eb ec bc | bc eb ec bc | "Cdim"c'c' aa ^ff ^dd | "B7"aa ^ff ^dd BB | 
"Em"e2 de e2 A_B | B_B AG E2 EF | "F#m"^F=F ^F=F ^F=F ^F_B | "F#/Bb"z_B A^F AF AB | 
"Bm"B4 (3Bde (3^fed | (3Bde (3^fed B2 EF | "F#m"^F=F ^F=F ^F=F ^F_B | "F#/Bb"z_B A^F AF AB | 
"Bm"BB7/1 | z8 | 


